X: 122
T: Laoren de zhuyuan The favour (?) of the old man
L: 1/8
M: 2/4
K: C
E A E D [I:setbarnb 1]| 
E D D E | 
A2d2 | 
E AE2 | 
E D D E | 
A4 | 
D3E | 
A3d | 
CD2E | 
G GA2 | 
A d C C | 
DE2C | 
A,4- | 
A,4 |]

@@@ Tune index: 8790
